X: 3691
T: Billy McCormack's
R: jig
M: 6/8
K: Gmajor
|:ABG A2 g|edB gdB|G3 BAG|dBG AGE|
ABG A2 g|edB def|g2 e fdB|1 BAG A2 E:|2 BAG ABd||
|:aga bge|aga bge|g3 gdB|GAB deg|
a3 age|edB def|g2 e fdB|1 BAG A2 e:|2 BAG A2E||

